X:1 % 16
T:Almer
C:traditionell
R:Jodler
A:Salzkammergut
B:"Pfeiermusik aus dem Salzkammergut", zus. A.Ruttner durch V.Derschmidt revidierte Ausgabe, Verlag E. Friedhuber, Wels, 2000, s.22
N:im buch ganz in D, zweistimmig, erster ton: 1.stimme: a', 2.stimme f#'
Z:abc transcripton Simon Wascher
M:3/4
L:1/8
K:D
P:3
A2 |\
B2A2G2 | Adf2zd | cag3c | dafdA2 |\
B2A2G2 | Adf2zd | cagcgc | d2z2 :| 
d2 | cag3c | dafdA2 | cbg3c | dafdA2 |\
B2A2G2 | Adf3d | cagcgc | d2z2 :|
